!!!OTL: 690. Fuchs.
!!!ARE: Europa, Mitteleuropa, Deutschland, Brandenburg
!!!SCT: K0690
!!!TXL: @@DE
!!!YEM: Copyright 1995, estate of Helmut Schaffrath.
**kern	**text
*clefG2	*
*M2/4	*
*k[b-]	*
*F:	*
=1	=1
{4a	Ru,
4g	ru,
=2	=2
8f	Rin-
8f	-ne-
8c}	-kenk*!
{8c	der
=3	=3
8a	Fuchs
8a	der
8g	beißt
8g	das
=4	=4
8f	Hin-
8f	-ne-
8c}	-ken;
{8c	da
=5	=5
8f	gab
8g	er
8a	mir
8f	den
=6	=6
4b-/	Ma-
8g}	-gen,
{8f	ich
=7	=7
8e	ſollt
8f	es
8g	kei-
8c	-nem
=8	=8
4a	ſa-
8f}	-gen;
{8a	da
=9	=9
4f	ſagt
8c	ich's,
8a	da
=10	=10
8f	ſchlug
8f	er
8c	mich,
8a	da
=11	=11
4f	weint
8c}	ich;
{8c	da
=12	=12
8f	ſchmiert
8g	er
8a	mir
8f	'ne
=13	=13
8b-/	But-
8a	-ter-
16g	-ſtul-
16g	-le,
8a	da
=14	=14
4f	ſchwieg
8f	ich.
8r}	.
==	==
!!!AGN: Kinder -, Tier - Lied
!!!ONB: ESAC (Essen Associative Code) Database: KINDER
!!!AMT: simple duple
!!!AIN: vox
!!!EED: Helmut Schaffrath
!!!EEV: 1.0
!!!GTL: VI. Das Kind im Verkehr mit der Natur. A. Verkehr mit der Thierwelt. (Grussliedchen an die Thiere.)
!!Brandenburgisch: Erk II. 1, 14. Simrock 582.
!!@@COMMENT:"Dieֵ¿er Reim dient auch als Wiegenlied.
!!*Der Ruf bezieht sich offenbar auf Reineke, den Fuchs."
!!@@END:
!!!URL-scan: https://archive.org/details/DeutschesKinderliedUndKinderspiel/page/148/mode/1up
!!!ENC: Anna Maria Matuszewska
!!!EEV: 2024/30/08
*-	*-
